!!!OTL: MEIN LIEBE FRAU MUTTER
!!!ARE: Europa, Mitteleuropa, Oesterreich, Lilienfeld
!!!SCT: E0056B
!!!YEM: Copyright 1995, estate of Helmut Schaffrath.
**kern
*ICvox
*Ivox
*M3/4
*k[b-e-]
*B-:
{4f
=1
8f
8b-
4.b-
8cc
=2
8cc
8dd
4.dd}
{8b-
=3
8cc
8dd
4ee-
4dd
=4
4.cc
8r}
{4f
=5
8f
8b-
4.b-
8cc
=6
8cc
8dd
4.dd}
{8b-
=7
8dd
8cc
4b-
4a
=8
2b-}
==
!!!AGN: erzaehlendes Volks - Lied, Sage, Kinds - Mord, Ballade ?
!!!ONB: ESAC (Essen Associative Code) Database: ERK1
!!!AMT: simple triple
!!!AIN: vox
!!!EED: Helmut Schaffrath
!!!EEV: 1.0
*-
